X:30
T:La soyotte d'Aube [ok]
R:
S:
N:
A:Champagne
G:
O:France
Z:<anamnese@laposte.net>
M:2/4
L:1/8
Q:1/4=135
K:D
A | d>d d>f | d>d d>f | e>e (3ede | f2 d>c | d>d d>f | d>d d>f | e>e (3efe |
d2d>d | g2g>g | f2f>f | e>e (3ede | f2 d>d | g2  g>g | f2  f>f | e>e (3efe | d2 z>A | f>f f>a |
f>f f>a | g>g (3gfg | a2 f>A | f>f f>a | f>f f>a | g>g (3gag | f2 f>d | b2 b>b | a2 a>f |
e>e (3ede | f2 d>d | b2-b>b | a2 a>f | e>e (3efe | d2 z2 :||: A/A/f d2 | Af d2 | (3eee ee |1f2d2 
:|2 d2 zd | g2-g>g | f2-f>f | e>e (3eee | f2 d>d | g2-g>g | f2-f>f | e>e (3efe | d2 z2 ||
